icons/Vala.svg

<svg xmlns="http://www.w3.org/2000/svg" width="256" height="256" fill="none" viewBox="0 0 256 256"><rect width="256" height="256" fill="url(#paint0_linear_148_1245)" rx="60"/><path fill="#201C2C" d="M130.986 28C123.731 28 116.45 28.9215 109.169 30.7366C101.995 32.4573 95.0686 34.9107 88.3946 38.0969C81.8526 41.1727 75.6135 44.8942 69.7644 49.2096C69.7554 49.217 69.7464 49.2244 69.7375 49.2318C64.1499 53.3737 59.0243 58.1432 54.455 63.4528C54.4442 63.4675 54.4334 63.4823 54.4228 63.4971C50.1724 68.5226 46.6434 74.1533 43.9442 80.2162C43.9352 80.2365 43.9262 80.2568 43.9174 80.2772C41.3635 86.1682 40.0291 92.5452 40 98.9999C40 104.062 40.5911 108.558 42.0044 112.511C42.0183 112.55 42.0326 112.588 42.0474 112.627C43.509 116.457 45.7014 119.804 48.587 122.341C48.6119 122.363 48.637 122.386 48.6622 122.408C51.564 124.872 55.0461 126.593 58.9151 127.664C58.9562 127.676 58.9973 127.687 59.0386 127.697C62.8109 128.647 66.954 129.096 71.5054 129.096C72.9524 129.096 74.3403 128.503 75.364 127.446C76.3877 126.39 76.9636 124.957 76.965 123.462C76.965 121.375 76.2556 119.932 75.5356 118.744L75.7882 119.21C75.4901 118.538 75.2247 117.851 74.9929 117.151C74.9929 117.145 74.9821 117.151 74.9821 117.14C74.6006 115.856 74.2813 114.554 74.0256 113.238C73.7359 110.963 73.6066 108.67 73.6387 106.377C73.6387 93.2438 76.5512 82.8028 82.172 74.46C86.4547 68.182 92.3818 63.5694 99.2063 59.7338L102.919 222.494C102.953 223.966 103.543 225.367 104.563 226.395C105.584 227.424 106.953 228 108.379 228H143.469C144.581 228 145.667 227.65 146.581 226.995C147.496 226.34 148.194 225.413 148.584 224.336L216.259 36.8369C216.566 35.9846 216.669 35.0683 216.558 34.1662C216.448 33.2641 216.129 32.4028 215.627 31.6559C215.125 30.909 214.455 30.2986 213.676 29.8766C212.896 29.4546 212.029 29.2334 211.149 29.2322H194.147C193.01 29.2317 191.901 29.5979 190.976 30.2796C190.05 30.9612 189.353 31.9244 188.983 33.0346L147.88 156.539L146.193 34.0559C146.173 32.6725 145.662 31.3449 144.757 30.3255C143.851 29.3061 142.614 28.6661 141.282 28.5273C139.612 28.3549 137.938 28.2253 136.263 28.1387H136.252C134.498 28.0469 132.742 28.0026 130.986 28.0056V28Z" opacity=".15"/><path fill="#201C2C" d="M108.379 222.36L104.456 50.4694C93.0358 54.8915 84.1156 61.8115 77.6959 71.2293C71.3479 80.6508 68.1739 92.3647 68.1739 106.371C68.1739 109.565 68.3333 112.187 68.6522 114.237C69.0462 116.202 69.4421 117.798 69.8397 119.027C70.2374 120.174 70.5956 121.075 70.9145 121.73C71.3085 122.385 71.5055 122.959 71.5055 123.451C67.3034 123.451 63.5777 123.042 60.3285 122.224C57.0756 121.321 54.3387 119.928 52.1176 118.044C49.9754 116.165 48.3095 113.667 47.1202 110.551C46.0096 107.443 45.4543 103.594 45.4543 99.0053C45.4543 93.4361 46.6025 87.9482 48.8989 82.5417C51.2776 77.139 54.4892 72.0193 58.5337 67.1827C62.657 62.3536 67.4557 57.8908 72.9296 53.7943C78.4823 49.6979 84.3896 46.175 90.6517 43.2257C96.9925 40.195 103.573 37.8617 110.394 36.2261C117.294 34.5016 124.154 33.6394 130.975 33.6394C132.799 33.6394 134.464 33.6801 135.973 33.7615C137.556 33.843 139.139 33.9651 140.723 34.1279L142.867 188.939L194.131 34.8606H211.138L143.463 222.366H108.374L108.379 222.36Z" opacity=".3"/><path fill="#fff" d="M108.379 216.81L104.456 44.9186C93.0358 49.3408 84.1156 56.2607 77.6959 65.6785C71.3479 75.1 68.1739 86.814 68.1739 100.82C68.1739 104.014 68.3333 106.636 68.6522 108.686C69.0462 110.651 69.4421 112.248 69.8397 113.476C70.2374 114.623 70.5956 115.524 70.9145 116.179C71.3085 116.834 71.5055 117.408 71.5055 117.9C67.3034 117.9 63.5777 117.491 60.3285 116.674C57.0756 115.771 54.3387 114.377 52.1176 112.494C49.9754 110.614 48.3095 108.116 47.1202 105C46.0096 101.892 45.4543 98.0432 45.4543 93.4545C45.4543 87.8853 46.6025 82.3974 48.8989 76.9909C51.2776 71.5882 54.4892 66.4685 58.5337 61.6319C62.657 56.8028 67.4557 52.34 72.9296 48.2436C78.4823 44.1471 84.3896 40.6242 90.6517 37.6749C96.9925 34.6442 103.573 32.3109 110.394 30.6753C117.294 28.9509 124.154 28.0886 130.975 28.0886C132.799 28.0886 134.464 28.1293 135.973 28.2108C137.556 28.2922 139.139 28.4143 140.723 28.5772L142.867 183.388L194.131 29.3098H211.138L143.463 216.815H108.374L108.379 216.81Z"/><defs><linearGradient id="paint0_linear_148_1245" x1="128" x2="128" y1="0" y2="256" gradientUnits="userSpaceOnUse"><stop stop-color="#AD65D6"/><stop offset="1" stop-color="#7B37B2"/></linearGradient></defs></svg>

<svg xmlns="http://www.w3.org/2000/svg" width="256" height="256" fill="none" viewBox="0 0 256 256"><rect width="256" height="256" fill="url(#a)" rx="60"/><path fill="#201C2C" d="M130.99 28q-10.9 0-21.82 2.74a105 105 0 0 0-20.78 7.36 111 111 0 0 0-18.65 11.13A94 94 0 0 0 54.42 63.5a70 70 0 0 0-10.48 16.72l-.02.06A48 48 0 0 0 40 99c0 5.06.6 9.56 2 13.51l.05.12a24.4 24.4 0 0 0 6.54 9.71l.07.07a27 27 0 0 0 10.38 5.29 51 51 0 0 0 12.47 1.4c1.44 0 2.83-.6 3.85-1.65a5.7 5.7 0 0 0 1.6-3.99c0-2.08-.7-3.53-1.42-4.72l.25.47q-.45-1-.8-2.06v-.01q-.58-1.93-.96-3.9a49 49 0 0 1-.4-6.86c0-13.14 2.92-23.58 8.54-31.92 4.28-6.28 10.21-10.9 17.04-14.73l3.7 162.76a5.7 5.7 0 0 0 1.65 3.9 5.4 5.4 0 0 0 3.82 1.61h35.09c1.11 0 2.2-.35 3.11-1a5.6 5.6 0 0 0 2-2.66l67.68-187.5a5.8 5.8 0 0 0-.63-5.18 5.3 5.3 0 0 0-4.48-2.42h-17c-1.14 0-2.25.36-3.17 1.04a5.6 5.6 0 0 0-2 2.75l-41.1 123.5-1.69-122.47a5.8 5.8 0 0 0-1.43-3.73 5.4 5.4 0 0 0-3.48-1.8q-2.5-.26-5.02-.4-2.64-.13-5.27-.12z" opacity=".15"/><path fill="#201C2C" d="m108.38 222.36-3.92-171.9Q87.33 57.1 77.7 71.24q-9.53 14.13-9.53 35.14 0 4.8.48 7.87.6 2.94 1.19 4.79.6 1.72 1.07 2.7.6.99.6 1.72-6.3 0-11.18-1.23a21 21 0 0 1-8.21-4.18 18.5 18.5 0 0 1-5-7.49q-1.67-4.66-1.67-11.54 0-8.35 3.45-16.47a64 64 0 0 1 9.63-15.36 89 89 0 0 1 14.4-13.39 106 106 0 0 1 17.72-10.56 99 99 0 0 1 19.74-7 85 85 0 0 1 25.58-2.47q2.38.12 4.75.37l2.15 154.8 51.26-154.07h17l-67.67 187.5z" opacity=".3"/><path fill="#fff" d="m108.38 216.81-3.92-171.9Q87.33 51.56 77.7 65.69q-9.53 14.13-9.53 35.14 0 4.8.48 7.87.6 2.94 1.19 4.79.6 1.71 1.07 2.7.6.98.6 1.72-6.3 0-11.18-1.23-4.88-1.36-8.21-4.18a18.5 18.5 0 0 1-5-7.49q-1.67-4.66-1.67-11.55 0-8.34 3.45-16.46a64 64 0 0 1 9.63-15.36 89 89 0 0 1 14.4-13.39q8.33-6.15 17.72-10.57a99 99 0 0 1 19.74-7 85 85 0 0 1 25.58-2.46q2.38.12 4.75.37l2.15 154.8 51.26-154.07h17l-67.67 187.5z"/><defs><linearGradient id="a" x1="128" x2="128" y1="0" y2="256" gradientUnits="userSpaceOnUse"><stop stop-color="#AD65D6"/><stop offset="1" stop-color="#7B37B2"/></linearGradient></defs></svg>
